X: 23
T: HBerg0
M: 6/4
L: 1/8
V:1
K:C clef=treble-8 octave=1 
B,12| A,12| E,12| B,,12| C,12| 
D,12| _E,12| F,12| F,12| A,12| 
G,12| G,12| F,12| F,12| G,12| 
A,12| F,12| D,12| _E,12| _E,12|
D,12| C,12| B,,12| C,12| D,12| 
F,12| D,12| C,12| B,,12| B,,12| 
B,12| C12| F,12| G,12| F,12| 
F,12| C12| =B,12| A,12| G,12|
F,12| =E,12| D,12| D,12| F,12| 
G,12| F,12| C,12| D,12| C,12| 
_B,,12| B,,12| B,,12|

